X: 21535
T: Kilcummin Lass, The
R: polka
M: 2/4
K: Dmajor
|:c/B/|AB c/B/A|eA cB|AB c/B/A|f2 fe/f/|
AB c/B/A|eA cB|AB ce|1 d2 d:|2 d2 d2||
|:fe/f/ ed|fe/f/ ec/B/|AB c/B/A|g2 g2|
fg/f/ ed|fe/f/ ec/B/|1 AB c/B/A|d2 d2:|2 AB ce|d2 d||

